X: 1
T: Somebody's Darling
O: 1862
C: Words: Marie Ravenal de la Coste
C: Music: John Hill Hewitt
S: http://www.traditionalmusic.co.uk/songs-tab/Somebodys_Darling.htm 2018-3-1
L: 1/8
M: 6/8
K: F
[|\
AAA AAA | ABd c2z | Edc Fdc | G2A G2z |\
AAA AAA | AAG F2z | GGG FDA | E2D C2z |
EGd cAc | EGd c2z | dBd c2A | BBB A2z |\
AAA AAA | BBc d2d | ccc cBG | C2C F2z |
CEG d2c | EGd c2z | fed cA2 | CCA/G/ F2z |]
